X: 1
T: Cooper, The
M: 6/8
L: 1/8
R: jig
K: Gmaj
|:g2G BAG|BcB BAG|g2 G BAG|ABd e2d|
g2G BAG|BcB BAG|gfe dcB|ABd e2d:|
|:gbg bgb|faf afa|gbg bgb| faf e2d|
gbg bgb|faf afa|gfe dcB|ABd e2d:|
